static/logos/welcome-glyph-color.svg

<svg width="50" height="58" viewBox="0 0 50 58" fill="none" xmlns="http://www.w3.org/2000/svg">
<g clip-path="url(#clip0_1_424)">
<path fill-rule="evenodd" clip-rule="evenodd" d="M0.09375 25.0397C0.09375 11.2856 11.2435 0.135864 24.9976 0.135864C38.7517 0.135864 49.9014 11.2856 49.9014 25.0397V57.7851H0.09375V25.0397ZM22.7826 54.2645H32.6581V34.8763C32.6581 25.9815 26.0277 19.0129 18.1362 19.0129C14.1341 19.0129 10.487 20.7827 7.83706 23.6949C5.39819 26.3752 3.81855 30.0126 3.63272 34.0697C5.66635 32.1409 8.41408 30.9576 11.4382 30.9576C17.7035 30.9576 22.7826 36.0368 22.7826 42.302V54.2645ZM36.1786 54.2645H46.3809V25.0397C46.3809 13.23 36.8073 3.65641 24.9976 3.65641C13.7858 3.65641 4.58938 12.2852 3.68696 23.2642C4.16245 22.5821 4.67909 21.9345 5.23316 21.3256C8.48972 17.7467 13.0562 15.4923 18.1362 15.4923C28.2293 15.4923 36.1786 24.3048 36.1786 34.8763V54.2645ZM11.4382 34.4781C7.1172 34.4781 3.61429 37.9811 3.61429 42.302V54.2645H19.2621V42.302C19.2621 37.9811 15.7592 34.4781 11.4382 34.4781Z" fill="black"/>
</g>
<defs>
<clipPath id="clip0_1_424">
<rect width="50" height="57.9208" fill="white"/>
</clipPath>
</defs>
</svg>

<svg xmlns="http://www.w3.org/2000/svg" width="55.172" height="64" fill="none" viewBox="0 0 50 58"><g clip-path="url(#a)"><path fill="#000" fill-rule="evenodd" d="M.094 25.04C.094 11.286 11.244.136 24.998.136S49.9 11.286 49.9 25.04v32.745H.094V25.04Zm22.689 29.224h9.875V34.876c0-8.894-6.63-15.863-14.522-15.863-4.002 0-7.649 1.77-10.299 4.682-2.439 2.68-4.018 6.318-4.204 10.375a11.306 11.306 0 0 1 7.805-3.112c6.265 0 11.345 5.079 11.345 11.344v11.962Zm13.396 0H46.38V25.04c0-11.81-9.574-21.384-21.383-21.384-11.212 0-20.409 8.63-21.311 19.608.475-.682.992-1.33 1.546-1.938 3.257-3.58 7.823-5.834 12.903-5.834 10.093 0 18.043 8.813 18.043 19.384v19.389Zm-24.74-19.786a7.824 7.824 0 0 0-7.825 7.824v11.962h15.648V42.302a7.824 7.824 0 0 0-7.824-7.824Z" clip-rule="evenodd"/></g><defs><clipPath id="a"><path fill="#fff" d="M0 0h50v57.921H0z"/></clipPath></defs></svg>
